pragma-ui/public/assets/currencies/dai.svg

<?xml version="1.0" encoding="UTF-8"?>
<!DOCTYPE svg PUBLIC "-//W3C//DTD SVG 1.1//EN" "http://www.w3.org/Graphics/SVG/1.1/DTD/svg11.dtd">
<!-- Creator: CorelDRAW 2019 (64-Bit) -->
<svg xmlns="http://www.w3.org/2000/svg" xml:space="preserve" width="100%" height="100%" version="1.1" shape-rendering="geometricPrecision" text-rendering="geometricPrecision" image-rendering="optimizeQuality" fill-rule="evenodd" clip-rule="evenodd"
viewBox="0 0 444.44 444.44"
 xmlns:xlink="http://www.w3.org/1999/xlink"
 xmlns:xodm="http://www.corel.com/coreldraw/odm/2003">
 <g id="Layer_x0020_1">
  <metadata id="CorelCorpID_0Corel-Layer"/>
  <path fill="#F5AC37" fill-rule="nonzero" d="M222.22 0c122.74,0 222.22,99.5 222.22,222.22 0,122.74 -99.48,222.22 -222.22,222.22 -122.72,0 -222.22,-99.49 -222.22,-222.22 0,-122.72 99.5,-222.22 222.22,-222.22z"/>
  <path fill="#FEFEFD" fill-rule="nonzero" d="M230.41 237.91l84.44 0c1.8,0 2.65,0 2.78,-2.36 0.69,-8.59 0.69,-17.23 0,-25.83 0,-1.67 -0.83,-2.36 -2.64,-2.36l-168.05 0c-2.08,0 -2.64,0.69 -2.64,2.64l0 24.72c0,3.19 0,3.19 3.33,3.19l82.78 0zm77.79 -59.44c0.24,-0.63 0.24,-1.32 0,-1.94 -1.41,-3.07 -3.08,-6 -5.02,-8.75 -2.92,-4.7 -6.36,-9.03 -10.28,-12.92 -1.85,-2.35 -3.99,-4.46 -6.39,-6.25 -12.02,-10.23 -26.31,-17.47 -41.67,-21.11 -7.75,-1.74 -15.67,-2.57 -23.61,-2.5l-74.58 0c-2.08,0 -2.36,0.83 -2.36,2.64l0 49.3c0,2.08 0,2.64 2.64,2.64l160.27 0c0,0 1.39,-0.28 1.67,-1.11l-0.68 0zm0 88.33c-2.36,-0.26 -4.74,-0.26 -7.1,0l-154.02 0c-2.08,0 -2.78,0 -2.78,2.78l0 48.2c0,2.22 0,2.78 2.78,2.78l71.11 0c3.4,0.26 6.8,0.02 10.13,-0.69 10.32,-0.74 20.47,-2.98 30.15,-6.67 3.52,-1.22 6.92,-2.81 10.13,-4.72l0.97 0c16.67,-8.67 30.21,-22.29 38.75,-39.01 0,0 0.97,-2.1 -0.12,-2.65zm-191.81 78.75l0 -0.83 0 -32.36 0 -10.97 0 -32.64c0,-1.81 0,-2.08 -2.22,-2.08l-30.14 0c-1.67,0 -2.36,0 -2.36,-2.22l0 -26.39 32.22 0c1.8,0 2.5,0 2.5,-2.36l0 -26.11c0,-1.67 0,-2.08 -2.22,-2.08l-30.14 0c-1.67,0 -2.36,0 -2.36,-2.22l0 -24.44c0,-1.53 0,-1.94 2.22,-1.94l29.86 0c2.08,0 2.64,0 2.64,-2.64l0 -74.86c0,-2.22 0,-2.78 2.78,-2.78l104.16 0c7.56,0.3 15.07,1.13 22.5,2.5 15.31,2.83 30.02,8.3 43.47,16.11 8.92,5.25 17.13,11.59 24.44,18.89 5.5,5.71 10.46,11.89 14.86,18.47 4.37,6.67 8,13.8 10.85,21.25 0.35,1.94 2.21,3.25 4.15,2.92l24.86 0c3.19,0 3.19,0 3.33,3.06l0 22.78c0,2.22 -0.83,2.78 -3.06,2.78l-19.17 0c-1.94,0 -2.5,0 -2.36,2.5 0.76,8.46 0.76,16.95 0,25.41 0,2.36 0,2.64 2.65,2.64l21.93 0c0.97,1.25 0,2.5 0,3.76 0.14,1.61 0.14,3.24 0,4.85l0 16.81c0,2.36 -0.69,3.06 -2.78,3.06l-26.25 0c-1.83,-0.35 -3.61,0.82 -4.03,2.64 -6.25,16.25 -16.25,30.82 -29.17,42.5 -4.72,4.25 -9.68,8.25 -14.86,11.94 -5.56,3.2 -10.97,6.53 -16.67,9.17 -10.49,4.72 -21.49,8.2 -32.78,10.41 -10.72,1.92 -21.59,2.79 -32.5,2.64l-96.39 0 0 -0.14z"/>
 </g>
</svg>

<svg width="445" height="445" viewBox="0 0 445 445" fill="none" xmlns="http://www.w3.org/2000/svg">
<path d="M222.22 0C344.96 0 444.44 99.5 444.44 222.22C444.44 344.96 344.96 444.44 222.22 444.44C99.5 444.44 0 344.95 0 222.22C0 99.5 99.5 0 222.22 0Z" fill="#B5F0E5"/>
<path d="M230.41 237.91H314.85C316.65 237.91 317.5 237.91 317.63 235.55C318.32 226.96 318.32 218.32 317.63 209.72C317.63 208.05 316.8 207.36 314.99 207.36H146.94C144.86 207.36 144.3 208.05 144.3 210V234.72C144.3 237.91 144.3 237.91 147.63 237.91H230.41ZM308.2 178.47C308.44 177.84 308.44 177.15 308.2 176.53C306.79 173.46 305.12 170.53 303.18 167.78C300.26 163.08 296.82 158.75 292.9 154.86C291.05 152.51 288.91 150.4 286.51 148.61C274.49 138.38 260.2 131.14 244.84 127.5C237.09 125.76 229.17 124.93 221.23 125H146.65C144.57 125 144.29 125.83 144.29 127.64V176.94C144.29 179.02 144.29 179.58 146.93 179.58H307.2C307.2 179.58 308.59 179.3 308.87 178.47H308.19H308.2ZM308.2 266.8C305.84 266.54 303.46 266.54 301.1 266.8H147.08C145 266.8 144.3 266.8 144.3 269.58V317.78C144.3 320 144.3 320.56 147.08 320.56H218.19C221.59 320.82 224.99 320.58 228.32 319.87C238.64 319.13 248.79 316.89 258.47 313.2C261.99 311.98 265.39 310.39 268.6 308.48H269.57C286.24 299.81 299.78 286.19 308.32 269.47C308.32 269.47 309.29 267.37 308.2 266.82V266.8ZM116.39 345.55V344.72V312.36V301.39V268.75C116.39 266.94 116.39 266.67 114.17 266.67H84.03C82.36 266.67 81.67 266.67 81.67 264.45V238.06H113.89C115.69 238.06 116.39 238.06 116.39 235.7V209.59C116.39 207.92 116.39 207.51 114.17 207.51H84.03C82.36 207.51 81.67 207.51 81.67 205.29V180.85C81.67 179.32 81.67 178.91 83.89 178.91H113.75C115.83 178.91 116.39 178.91 116.39 176.27V101.41C116.39 99.1899 116.39 98.6299 119.17 98.6299H223.33C230.89 98.9299 238.4 99.7599 245.83 101.13C261.14 103.96 275.85 109.43 289.3 117.24C298.22 122.49 306.43 128.83 313.74 136.13C319.24 141.84 324.2 148.02 328.6 154.6C332.97 161.27 336.6 168.4 339.45 175.85C339.8 177.79 341.66 179.1 343.6 178.77H368.46C371.65 178.77 371.65 178.77 371.79 181.83V204.61C371.79 206.83 370.96 207.39 368.73 207.39H349.56C347.62 207.39 347.06 207.39 347.2 209.89C347.96 218.35 347.96 226.84 347.2 235.3C347.2 237.66 347.2 237.94 349.85 237.94H371.78C372.75 239.19 371.78 240.44 371.78 241.7C371.92 243.31 371.92 244.94 371.78 246.55V263.36C371.78 265.72 371.09 266.42 369 266.42H342.75C340.92 266.07 339.14 267.24 338.72 269.06C332.47 285.31 322.47 299.88 309.55 311.56C304.83 315.81 299.87 319.81 294.69 323.5C289.13 326.7 283.72 330.03 278.02 332.67C267.53 337.39 256.53 340.87 245.24 343.08C234.52 345 223.65 345.87 212.74 345.72H116.35V345.58L116.39 345.55Z" fill="#042420"/>
</svg>
